lib/flags/bs-bahamas.svg

<svg xmlns="http://www.w3.org/2000/svg" fill="none" aria-hidden="true" viewBox="0 0 42 30"><g filter="url(#a)"><g clip-path="url(#b)"><mask id="c" width="36" height="24" x="3" y="2" maskUnits="userSpaceOnUse" style="mask-type:alpha"><path fill="#fff" d="M3 2h36v24H3z"/></mask><g fill-rule="evenodd" clip-rule="evenodd" mask="url(#c)"><path fill="#FECA00" d="M3 2h36v24H3V2Z"/><path fill="#3CB1CF" d="M3 2v8h36V2H3Zm0 16v8h36v-8H3Z"/><path fill="#272727" d="m3 2 18 12L3 26V2Z"/></g></g></g><defs><clipPath id="b"><rect width="36" height="24" x="3" y="2" fill="#fff" rx="2"/></clipPath><filter id="a" width="42" height="30" x="0" y="0" color-interpolation-filters="sRGB" filterUnits="userSpaceOnUse"><feFlood flood-opacity="0" result="BackgroundImageFix"/><feColorMatrix in="SourceAlpha" result="hardAlpha" values="0 0 0 0 0 0 0 0 0 0 0 0 0 0 0 0 0 0 127 0"/><feOffset dy="1"/><feGaussianBlur stdDeviation="1"/><feColorMatrix values="0 0 0 0 0.0627451 0 0 0 0 0.0941176 0 0 0 0 0.156863 0 0 0 0.06 0"/><feBlend in2="BackgroundImageFix" result="effect1_dropShadow_91_29355"/><feColorMatrix in="SourceAlpha" result="hardAlpha" values="0 0 0 0 0 0 0 0 0 0 0 0 0 0 0 0 0 0 127 0"/><feOffset dy="1"/><feGaussianBlur stdDeviation="1.5"/><feColorMatrix values="0 0 0 0 0.0627451 0 0 0 0 0.0941176 0 0 0 0 0.156863 0 0 0 0.1 0"/><feBlend in2="effect1_dropShadow_91_29355" result="effect2_dropShadow_91_29355"/><feBlend in="SourceGraphic" in2="effect2_dropShadow_91_29355" result="shape"/></filter></defs></svg>

<svg xmlns="http://www.w3.org/2000/svg" fill="none" aria-hidden="true" viewBox="0 0 42 30"><g id="Country=BS - Bahamas, Size=sm (36x24)" filter="url(#filter0_dd_91_29355)"><g clip-path="url(#clip0_91_29355)"><g id="flag"><mask id="mask0_91_29355" width="36" height="24" x="3" y="2" maskUnits="userSpaceOnUse" style="mask-type:alpha"><rect id="mask" width="36" height="24" x="3" y="2" fill="white"/></mask><g mask="url(#mask0_91_29355)"><g id="contents"><path id="middle" fill="#FECA00" fill-rule="evenodd" d="M3 2H39V26H3V2Z" clip-rule="evenodd"/><path id="top" fill="#3CB1CF" fill-rule="evenodd" d="M3 2V10H39V2H3Z" clip-rule="evenodd"/><path id="bottom" fill="#3CB1CF" fill-rule="evenodd" d="M3 18V26H39V18H3Z" clip-rule="evenodd"/><path id="triangle" fill="#272727" fill-rule="evenodd" d="M3 2L21 14L3 26V2Z" clip-rule="evenodd"/></g></g></g></g></g><defs><filter id="filter0_dd_91_29355" width="42" height="30" x="0" y="0" color-interpolation-filters="sRGB" filterUnits="userSpaceOnUse"><feFlood flood-opacity="0" result="BackgroundImageFix"/><feColorMatrix in="SourceAlpha" result="hardAlpha" values="0 0 0 0 0 0 0 0 0 0 0 0 0 0 0 0 0 0 127 0"/><feOffset dy="1"/><feGaussianBlur stdDeviation="1"/><feColorMatrix values="0 0 0 0 0.0627451 0 0 0 0 0.0941176 0 0 0 0 0.156863 0 0 0 0.06 0"/><feBlend in2="BackgroundImageFix" result="effect1_dropShadow_91_29355"/><feColorMatrix in="SourceAlpha" result="hardAlpha" values="0 0 0 0 0 0 0 0 0 0 0 0 0 0 0 0 0 0 127 0"/><feOffset dy="1"/><feGaussianBlur stdDeviation="1.5"/><feColorMatrix values="0 0 0 0 0.0627451 0 0 0 0 0.0941176 0 0 0 0 0.156863 0 0 0 0.1 0"/><feBlend in2="effect1_dropShadow_91_29355" result="effect2_dropShadow_91_29355"/><feBlend in="SourceGraphic" in2="effect2_dropShadow_91_29355" result="shape"/></filter><clipPath id="clip0_91_29355"><rect width="36" height="24" x="3" y="2" fill="white" rx="2"/></clipPath></defs></svg>
